applications/preferences-system-notifications-symbolic.svg

<?xml version="1.0" encoding="UTF-8" standalone="no"?>
<!-- Created with Inkscape (http://www.inkscape.org/) -->

<svg
   xmlns:dc="http://purl.org/dc/elements/1.1/"
   xmlns:cc="http://creativecommons.org/ns#"
   xmlns:rdf="http://www.w3.org/1999/02/22-rdf-syntax-ns#"
   xmlns:svg="http://www.w3.org/2000/svg"
   xmlns="http://www.w3.org/2000/svg"
   xmlns:sodipodi="http://sodipodi.sourceforge.net/DTD/sodipodi-0.dtd"
   xmlns:inkscape="http://www.inkscape.org/namespaces/inkscape"
   width="16"
   height="16"
   id="svg4152"
   version="1.1"
   inkscape:version="0.92.1 r"
   viewBox="0 0 16 16"
   sodipodi:docname="preferences-system-notifications-symbolic.svg">
  <defs
     id="defs4154" />
  <sodipodi:namedview
     id="base"
     pagecolor="#ededed"
     bordercolor="#000000"
     borderopacity="0.49803922"
     inkscape:pageopacity="0"
     inkscape:pageshadow="2"
     inkscape:zoom="31.392433"
     inkscape:cx="6.5639046"
     inkscape:cy="7.4576"
     inkscape:current-layer="layer1"
     showgrid="true"
     inkscape:grid-bbox="true"
     inkscape:document-units="px"
     inkscape:showpageshadow="false"
     borderlayer="true"
     inkscape:window-width="1920"
     inkscape:window-height="1012"
     inkscape:window-x="0"
     inkscape:window-y="32"
     inkscape:window-maximized="1"
     showguides="false">
    <inkscape:grid
       type="xygrid"
       id="grid4700"
       color="#000000"
       opacity="0.0627451"
       empcolor="#000000"
       empopacity="0.1254902"
       empspacing="4"
       spacingx="2"
       spacingy="2" />
  </sodipodi:namedview>
  <metadata
     id="metadata4157">
    <rdf:RDF>
      <cc:Work
         rdf:about="">
        <dc:format>image/svg+xml</dc:format>
        <dc:type
           rdf:resource="http://purl.org/dc/dcmitype/StillImage" />
        <dc:title />
      </cc:Work>
    </rdf:RDF>
  </metadata>
  <g
     id="layer1"
     inkscape:label="Layer 1"
     inkscape:groupmode="layer">
    <path
       style="color:#000000;font-style:normal;font-variant:normal;font-weight:normal;font-stretch:normal;font-size:medium;line-height:normal;font-family:sans-serif;font-variant-ligatures:normal;font-variant-position:normal;font-variant-caps:normal;font-variant-numeric:normal;font-variant-alternates:normal;font-feature-settings:normal;text-indent:0;text-align:start;text-decoration:none;text-decoration-line:none;text-decoration-style:solid;text-decoration-color:#000000;letter-spacing:normal;word-spacing:normal;text-transform:none;writing-mode:lr-tb;direction:ltr;text-orientation:mixed;dominant-baseline:auto;baseline-shift:baseline;text-anchor:start;white-space:normal;shape-padding:0;clip-rule:nonzero;display:inline;overflow:visible;visibility:visible;opacity:1;isolation:auto;mix-blend-mode:normal;color-interpolation:sRGB;color-interpolation-filters:linearRGB;solid-color:#000000;solid-opacity:1;vector-effect:none;fill:#000000;fill-opacity:1;fill-rule:evenodd;stroke:none;stroke-width:2;stroke-linecap:round;stroke-linejoin:round;stroke-miterlimit:4;stroke-dasharray:none;stroke-dashoffset:0;stroke-opacity:1;color-rendering:auto;image-rendering:auto;shape-rendering:auto;text-rendering:auto;enable-background:accumulate"
       d="M 8 0 C 4.7324322 -7.5824249e-08 2.0611041 2.6435047 2.0058594 5.8984375 A 1.0001 1.0001 0 0 0 2 6 L 2 10 C 2 10.564129 1.5641294 11 1 11 A 1.0001 1.0001 0 1 0 1 13 L 5 13 C 5 14.070194 5.5731851 15.062559 6.5 15.597656 C 7.4268149 16.132753 8.5731851 16.132753 9.5 15.597656 C 10.426815 15.062559 11 14.070194 11 13 L 15 13 A 1.0001 1.0001 0 1 0 15 11 C 14.734399 11 14.480777 10.894839 14.292969 10.707031 C 14.105161 10.519223 14 10.265601 14 10 L 14 6 A 1.0001 1.0001 0 0 0 13.994141 5.8867188 C 13.932643 2.6371968 11.263622 7.573269e-08 8 0 z M 8 2 C 10.220984 2.0000001 12 3.7790164 12 6 L 12 10 A 1.0001 1.0001 0 0 0 12.021484 10.214844 C 12.041091 10.484704 12.094101 10.748024 12.183594 11 L 3.8125 11 C 3.9023576 10.750826 3.9584 10.48852 3.9785156 10.214844 A 1.0001 1.0001 0 0 0 4 10 L 4 6 C 4.0000001 3.7790164 5.7790164 1.9999999 8 2 z M 7 13 L 9 13 C 9 13.358869 8.8107895 13.6858 8.5 13.865234 C 8.1892105 14.044669 7.8107895 14.044669 7.5 13.865234 C 7.1892105 13.6858 7 13.358869 7 13 z "
       id="path4487" />
  </g>
</svg>

<svg xmlns="http://www.w3.org/2000/svg" width="16" height="16"><path fill-rule="evenodd" d="M8 0C4.732 0 2.061 2.644 2.006 5.898A1 1 0 0 0 2 6v4c0 .564-.436 1-1 1a1 1 0 1 0 0 2h4c0 1.07.573 2.063 1.5 2.598a3.004 3.004 0 0 0 3 0A3.003 3.003 0 0 0 11 13h4a1 1 0 1 0 0-2 .999.999 0 0 1-1-1V6a1 1 0 0 0-.006-.113C13.933 2.637 11.264 0 8 0zm0 2c2.221 0 4 1.779 4 4v4a1 1 0 0 0 .021.215c.02.27.073.533.163.785H3.813c.09-.25.145-.511.166-.785A1 1 0 0 0 4 10V6c0-2.221 1.779-4 4-4zM7 13h2c0 .359-.19.686-.5.865-.31.18-.69.18-1 0A.995.995 0 0 1 7 13z"/></svg>
